img/svg/software-licenses/funnel.svg

<svg width="24" height="24" viewBox="0 0 24 24" fill="none" xmlns="http://www.w3.org/2000/svg">
<path d="M14.6283 12.7035L14.5 12.8461V13.038V20.2496C14.5 20.3021 14.4834 20.3532 14.4527 20.3957C14.422 20.4382 14.3788 20.47 14.329 20.4866L14.3289 20.4867L9.829 21.9866C9.82896 21.9866 9.82892 21.9866 9.82889 21.9867C9.79135 21.9991 9.7514 22.0025 9.7123 21.9966C9.67316 21.9906 9.636 21.9754 9.60388 21.9523L9.31162 22.358L9.60387 21.9523C9.57175 21.9291 9.54558 21.8987 9.52752 21.8635C9.50946 21.8282 9.50003 21.7892 9.5 21.7496V13.038V12.8461L9.37165 12.7035L2.814 5.41691C2.81397 5.41688 2.81394 5.41684 2.81391 5.41681C2.77279 5.37097 2.75003 5.31158 2.75 5.25C2.75 5.24997 2.75 5.24994 2.75 5.24991V2.25C2.75 2.1837 2.77634 2.12011 2.82322 2.07322C2.87011 2.02634 2.9337 2 3 2H21C21.0663 2 21.1299 2.02634 21.1768 2.07322C21.2237 2.12011 21.25 2.1837 21.25 2.25V5.24991C21.25 5.24994 21.25 5.24997 21.25 5.25C21.25 5.3115 21.2273 5.37083 21.1862 5.41664C21.1862 5.41673 21.1861 5.41682 21.186 5.41691L14.6283 12.7035ZM3.75 2.5H3.25V3V4.962V5.15386L3.37835 5.29647L9.936 12.5831C9.97718 12.6289 9.99997 12.6884 10 12.75C10 12.75 10 12.7501 10 12.7501V20.709V21.4025L10.658 21.1834L13.658 20.1844L14 20.0705V19.71V12.7501C14 12.7501 14 12.75 14 12.75C14 12.6884 14.0228 12.6289 14.064 12.5831L20.6217 5.29647L20.75 5.15386V4.962V3V2.5H20.25H3.75Z" fill="#030303" stroke="#030303"/>
</svg>

<svg width="24" height="24" fill="none" xmlns="http://www.w3.org/2000/svg"><path d="M14.628 12.704l-.128.142v7.404a.25.25 0 01-.171.237h0l-4.5 1.5s0 0 0 0a.252.252 0 01-.225-.035l-.292.406.292-.406a.25.25 0 01-.104-.202v-8.904l-.128-.143-6.558-7.286s0 0 0 0a.25.25 0 01-.064-.167s0 0 0 0v-3A.25.25 0 013 2h18a.25.25 0 01.25.25v3s0 0 0 0a.25.25 0 01-.064.167l-6.558 7.287zM3.75 2.5h-.5v2.654l.128.142 6.558 7.287a.25.25 0 01.064.167s0 0 0 0v8.653l.658-.22 3-.999.342-.114v-7.32s0 0 0 0a.25.25 0 01.064-.167l6.558-7.287.128-.142V2.5h-17z" fill="#030303" stroke="#030303"/></svg>
